X:113
T:My Love shes but a Lassie Yet. LIT.113
M:2/4
Q:1/4=140
L:1/8
B:Wm. Litten MS, 1802
Z:Village Music Project 2017 Anne Wride
K:C
c/B/ | cC EG | cC Cc/B/ | cC EG | dD DA/B/ |
cC EG | cf ed | c/B/A/G/ AB | cC C :|
|: e/f/ | gefd | ec ce/f/ | ge fe |
dD De/f/ | ge fd | ec dB | c/B/A/G/ AB | cC C :|

